X: 15247
T: Girl Of The House, The
R: jig
M: 6/8
K: Gmajor
AG|:F2 D DAG|F2F GEA|DED AGE|F2D DAG|
F2F GFG|AGA cde|dcA GEA|1 DED DAG:|2 DED DAB||
c2 A AGF|G2G GFG|AdB cAG|Ad^c deg|
fed cAG|EFA GEA|dcA GEA|1 DED DAB:|2 DED D3||

